src/resources/justin.svg

<?xml version="1.0" encoding="UTF-8" standalone="no"?>
<!-- Created with Inkscape (http://www.inkscape.org/) -->

<svg
   xmlns:dc="http://purl.org/dc/elements/1.1/"
   xmlns:cc="http://creativecommons.org/ns#"
   xmlns:rdf="http://www.w3.org/1999/02/22-rdf-syntax-ns#"
   xmlns:svg="http://www.w3.org/2000/svg"
   xmlns="http://www.w3.org/2000/svg"
   xmlns:sodipodi="http://sodipodi.sourceforge.net/DTD/sodipodi-0.dtd"
   xmlns:inkscape="http://www.inkscape.org/namespaces/inkscape"
   id="svg4302"
   version="1.1"
   inkscape:version="0.91 r13725"
   width="1000"
   height="1000"
   viewBox="0 0 1000 1000"
   sodipodi:docname="justin.svg">
  <metadata
     id="metadata4308">
    <rdf:RDF>
      <cc:Work
         rdf:about="">
        <dc:format>image/svg+xml</dc:format>
        <dc:type
           rdf:resource="http://purl.org/dc/dcmitype/StillImage" />
        <dc:title />
      </cc:Work>
    </rdf:RDF>
  </metadata>
  <defs
     id="defs4306" />
  <sodipodi:namedview
     pagecolor="#8effff"
     bordercolor="#666666"
     borderopacity="1"
     objecttolerance="10"
     gridtolerance="10"
     guidetolerance="10"
     inkscape:pageopacity="0"
     inkscape:pageshadow="2"
     inkscape:window-width="1920"
     inkscape:window-height="1056"
     id="namedview4304"
     showgrid="false"
     inkscape:zoom="0.77667441"
     inkscape:cx="315.93624"
     inkscape:cy="523.00556"
     inkscape:window-x="0"
     inkscape:window-y="24"
     inkscape:window-maximized="1"
     inkscape:current-layer="layer1"
     showguides="true"
     inkscape:guide-bbox="true">
    <sodipodi:guide
       position="582.67445,4741.5134"
       orientation="0,1"
       id="guide4408" />
    <sodipodi:guide
       position="499.56583,1013.2946"
       orientation="1,0"
       id="guide4466" />
    <sodipodi:guide
       position="437.76387,500.85337"
       orientation="0,1"
       id="guide4468" />
  </sodipodi:namedview>
  <g
     inkscape:groupmode="layer"
     id="layer1"
     inkscape:label="Layer 1"
     style="display:inline"
     transform="translate(0,-3733)">
    <circle
       style="fill:#455864;fill-opacity:1;fill-rule:evenodd;stroke:none;stroke-width:1px;stroke-linecap:butt;stroke-linejoin:miter;stroke-opacity:1"
       id="path4470"
       cx="499.56583"
       cy="4232.1465"
       r="500.85336" />
    <path
       style="fill:#000000;fill-opacity:1;fill-rule:evenodd;stroke:none;stroke-width:8;stroke-linecap:butt;stroke-linejoin:miter;stroke-miterlimit:4;stroke-dasharray:none;stroke-opacity:1"
       d="m 950.5332,681.28516 c -1.25068,-0.0357 -2.23877,0.39871 -2.75195,1.68164 -2.05267,5.1317 -18.21765,35.66662 -22.06641,38.23242 -3.84879,2.5659 -16.42177,2.30846 -21.29687,5.13086 -4.87512,2.8225 -12.57342,14.36991 -19.75781,16.16601 -7.18437,1.7961 -30.53243,7.95333 -37.7168,14.11133 -7.18436,6.1581 -17.44727,2.82234 -17.44727,6.92774 0,4.1053 -46.44336,-3.5918 -46.44336,-3.5918 l -256.83984,81.59375 -1.07227,-0.31641 c 0,0 -9.07226,-1.45256 -9.07226,7.61914 0,9.0716 -9.79786,-6.16728 -24.3125,-2.17578 -14.5146,3.9915 -44.26828,-7.98417 -65.31445,-4.35547 -21.04621,3.6287 -68.94372,27.94153 -96.52149,22.86133 -27.57777,-5.0801 -64.59189,-17.05633 -71.48633,-13.42773 -6.89445,3.6287 -23.2222,19.59623 -27.93945,21.77343 -3.33959,1.54136 -27.00284,10.16729 -41.98242,17.5254 A 500.85336,500.85336 0 0 0 499.56641,1000 500.85336,500.85336 0 0 0 965.57812,681.32422 c -1.04133,1.41728 -1.911,2.4466 -2.45898,2.77539 -2.72149,1.6329 -8.83388,-2.70753 -12.58594,-2.81445 z"
       transform="translate(0,3733)"
       id="path4377"
       inkscape:connector-curvature="0" />
    <path
       style="fill:#ffffff;fill-opacity:1;fill-rule:evenodd;stroke:none;stroke-width:8;stroke-linecap:butt;stroke-linejoin:miter;stroke-miterlimit:4;stroke-dasharray:none;stroke-opacity:1"
       d="m 526.2123,4578.1293 c 0,0 -5.1317,4.1053 1.53949,7.6975 6.67121,3.5922 22.06628,-7.6975 26.68479,-4.6185 4.61855,3.079 16.93459,2.5658 23.6058,2.5658 6.67118,0 21.5531,-4.6185 29.25065,-4.6185 7.69752,0 31.81646,-5.6448 43.61938,-5.1317 11.80288,0.5132 36.94816,-12.316 42.59304,-14.3687 5.64485,-2.0527 17.44774,-9.7502 30.79014,-18.9873 13.3424,-9.237 37.97453,-22.0662 37.97453,-22.0662 0,0 33.35598,-16.4214 40.54035,-15.3951 7.18439,1.0263 14.88191,2.5658 20.01361,1.0263 5.1317,-1.5395 -8.2107,-7.1843 -7.69755,-15.395 0.51318,-8.2108 -4.87509,-39.5141 -3.33558,-70.0476 1.53949,-30.5336 -1.53951,-68.5081 2.30925,-75.4359 3.84876,-6.9278 16.16482,-10.0068 24.8887,-14.8819 8.72388,-4.8751 29.50723,-33.6126 30.79016,-40.0272 1.28292,-6.4146 8.72389,-19.757 12.05947,-26.6848 3.3356,-6.9278 4.61851,-10.52 4.87512,-15.9083 0,0 9.49361,-9.7502 14.36873,-29.5072 4.87509,-19.757 4.87509,-43.6194 9.75022,-60.8105 4.87509,-17.1912 24.8887,-51.317 20.52676,-73.6398 -4.36194,-22.3229 -11.54631,-100.5812 -31.04674,-120.5948 -19.50043,-20.0136 -18.47409,-61.3237 -26.6848,-66.9686 -8.2107,-5.6448 -27.45455,2.3093 -55.16568,-12.316 -27.71113,-14.6253 -61.5803,-44.1326 -75.94903,-49.2643 -14.36874,-5.1316 4.61851,3.5922 -13.59901,2.8225 -18.21749,-0.7698 -10.51994,10.0068 -21.29652,10.0068 -10.77655,0 -5.64485,9.7502 -18.98725,10.2634 -13.3424,0.5131 -54.65251,-11.0332 -73.89636,-11.5463 -19.24386,-0.5132 -56.4486,-4.1054 -67.73833,-1.0264 -11.28973,3.079 -23.6058,8.4673 -29.25065,13.3424 -5.64485,4.8751 -23.86237,20.5268 -19.50043,26.6848 4.36194,6.158 -5.38827,5.3883 -23.09261,8.9805 -17.70434,3.5921 -15.39507,11.5463 -22.06628,14.6253 -6.67119,3.079 -13.3424,17.1912 -20.52677,17.4477 -7.18437,0.2566 -12.57264,7.6976 -15.90825,10.52 -3.33558,2.8224 -10.51994,20.5268 -18.73067,26.1716 -8.2107,5.6449 -38.48768,18.4741 -32.32965,31.8165 6.15803,13.3424 11.80288,31.3033 23.6058,38.2311 11.80288,6.9278 14.11215,6.4146 12.57264,13.599 -1.53952,7.1844 -12.31607,46.4418 -14.36874,49.5208 -2.05269,3.079 -11.80291,28.7375 -15.39509,32.5863 -3.59219,3.8488 -5.38828,16.678 -3.84876,20.2702 1.53951,3.5921 3.079,18.4741 11.54631,18.9872 8.46727,0.5132 -1.28291,6.9278 0,9.7503 1.28291,2.8224 1.79609,8.2107 4.61851,8.2107 2.82243,0 5.1317,-3.0791 5.1317,1.5395 0,4.6185 1.34706,9.8143 0.70562,10.135 -0.64147,0.3208 -5.19585,10.1351 -6.60707,12.8934 -1.4112,2.7583 -13.98384,24.1831 -13.0858,34.3182 0.89805,10.1351 3.97705,35.0238 2.69414,38.2311 -1.28294,3.2073 -15.52338,24.7604 -14.88192,27.3263 0.64147,2.5658 -0.51318,5.7731 1.28292,8.4673 1.79609,2.6941 16.93458,20.0136 19.75703,21.6814 2.82243,1.6678 12.31604,8.0824 16.4214,7.5692 4.10537,-0.5131 -2.56585,8.8522 -2.43756,11.2897 0.12829,2.4376 -1.15462,10.6483 -2.30924,14.6253 -1.15465,3.9771 0,15.3951 2.95071,18.7307 2.95071,3.3356 -3.20732,10.0068 -1.79609,15.0102 1.41123,5.0034 12.05949,14.6254 11.54631,17.1912 -0.51318,2.5658 -6.67122,40.1555 -7.44095,43.876 -0.76975,3.7204 -4.10536,17.3194 -1.53951,22.4511 2.56585,5.1317 16.16482,22.1946 31.04674,29.5072 14.88188,7.3127 77.10365,6.1581 83.51829,12.5727 6.4146,6.4146 13.34239,5.3883 13.59897,12.8292 0.25658,7.441 3.33561,33.8692 3.33561,33.8692 z"
       id="path4313"
       inkscape:connector-curvature="0"
       sodipodi:nodetypes="cssssssscsssssssscssssssssssssssssssssssssssssscsssssssssssssssssc" />
    <path
       style="fill:#ffffff;fill-opacity:1;fill-rule:evenodd;stroke:none;stroke-width:1px;stroke-linecap:butt;stroke-linejoin:miter;stroke-opacity:1"
       d="m 499.90234,33.300781 c -2.47623,-0.01 -4.26777,0.07195 -5.25,0.251953 -12.57264,2.3093 -31.55977,47.210366 -38.74414,51.572266 -7.18436,4.3619 -31.8164,28.48071 -31.8164,36.69141 0,8.2107 2.05273,10.77734 2.05273,10.77734 0,0 -5.13266,-3.33496 -7.95508,-0.25586 -2.82243,3.079 -17.70335,18.7299 -16.93359,23.0918 0.76975,4.3619 7.95452,13.85476 5.38867,16.16406 -2.56585,2.3093 -6.41601,7.44282 -6.41601,13.85742 0,6.4147 4.10638,33.09917 10.00781,34.63867 5.90146,1.5395 465.1875,-29.76367 465.1875,-29.76367 l 17.5,-1.08203 A 500.85336,500.85336 0 0 0 717.57227,48.923828 c -8.96571,1.586251 -16.34096,2.367644 -23.69922,0.160156 -14.51463,-4.3544 -13.78926,5.080863 -27.57813,0.726563 -12.71164,-4.0142 -137.17299,-16.407066 -166.39258,-16.509766 z"
       transform="translate(0,3733)"
       id="path4379"
       inkscape:connector-curvature="0" />
    <path
       style="fill:#000000;fill-opacity:0.90566041;fill-rule:evenodd;stroke:none;stroke-width:8;stroke-linecap:butt;stroke-linejoin:miter;stroke-miterlimit:4;stroke-dasharray:none;stroke-opacity:1"
       d="m 737.13337,3831.1282 c -2.46244,-0.1462 6.0132,5.0468 -8.21924,4.4454 -18.21749,-0.7698 -10.52017,10.0066 -21.29675,10.0066 -10.77655,0 -5.64468,9.7504 -18.98708,10.2636 -13.3424,0.5131 -54.65242,-11.033 -73.89627,-11.5462 -19.24386,-0.5132 -56.44869,-4.1056 -67.73842,-1.0266 -11.28973,3.079 -23.60582,8.4672 -29.25067,13.3423 -5.64485,4.8751 -23.8626,20.527 -19.50066,26.685 4.36194,6.1581 -5.38797,5.3884 -23.09231,8.9806 -17.70433,3.5922 -15.39506,11.5463 -22.06628,14.6253 -6.67118,3.079 -13.34231,17.1909 -20.52668,17.4475 -7.18436,0.2566 -12.57281,7.6977 -15.90841,10.5201 -3.33558,2.8225 -10.51986,20.5267 -18.73059,26.1715 -8.2107,5.6449 -38.48788,18.474 -32.32988,31.8164 6.15803,13.3424 11.80297,31.3034 23.60588,38.2312 5.50121,3.229 8.93872,4.8414 10.88672,6.3703 2.94798,-1.4459 2.96909,-1.7515 2.96909,-1.7515 0,0 5.13147,-16.4218 24.6319,-15.3955 19.50043,1.0264 31.81672,12.8292 45.15912,5.6449 13.3424,-7.1844 21.03995,-18.9871 34.89553,-22.5793 13.85555,-3.5922 29.25048,-6.6711 41.05336,-0.513 11.80289,6.158 24.11878,26.6844 35.40851,28.7371 11.2897,2.0527 31.81664,9.2375 49.26437,-1.539 17.44777,-10.7766 65.17279,-5.6449 65.17279,-5.6449 0,0 -24.6326,28.7371 -11.29021,65.6853 13.3424,36.9482 35.92212,45.1589 35.92212,69.791 0,24.6321 13.3426,40.0272 19.50063,60.554 6.15803,20.5268 -11.29007,48.238 3.07866,42.0799 14.36876,-6.158 30.79019,-40.0274 51.31696,-54.3961 20.52676,-14.3688 33.86933,-23.6057 47.21173,-22.5793 13.3424,1.0263 19.67942,-4.3183 26.57387,7.2934 6.89442,11.6117 15.24051,42.8186 15.96625,47.8987 l 0.59942,4.1982 c 2.37694,-2.8104 9.53941,-12.2828 13.56575,-28.6 4.87509,-19.757 4.87492,-43.6194 9.75004,-60.8105 4.8751,-17.1912 24.88863,-51.3169 20.52668,-73.6398 -4.36194,-22.3228 -11.54636,-100.5814 -31.04679,-120.595 -19.50043,-20.0136 -18.47382,-61.3234 -26.68452,-66.9683 -8.2107,-5.6448 -27.45455,2.3091 -55.16568,-12.3162 -27.71114,-14.6254 -61.58069,-44.1327 -75.94943,-49.2644 -3.14314,-1.1225 -4.69002,-1.5818 -5.37951,-1.6227 z"
       id="path4313-3"
       inkscape:connector-curvature="0" />
    <path
       style="fill:#000000;fill-opacity:0.90566041;fill-rule:evenodd;stroke:none;stroke-width:1px;stroke-linecap:butt;stroke-linejoin:miter;stroke-opacity:1"
       d="m 494.90895,4143.475 c 0,0 -32.32964,7.6975 -30.27698,14.8819 2.0527,7.1844 1.02637,15.3951 6.67122,15.3951 5.64485,0 2.05267,3.079 11.80288,0.5131 9.75022,-2.5658 22.06628,-10.7765 34.8955,-13.3424 12.82925,-2.5658 66.71199,-5.6448 91.34412,8.2107 24.63213,13.8556 -7.69754,-13.3424 -7.69754,-13.3424 0,0 -15.39507,-20.0135 -106.7392,-12.316 z"
       id="path4371"
       inkscape:connector-curvature="0" />
    <path
       style="fill:#000000;fill-opacity:0.90566041;fill-rule:evenodd;stroke:none;stroke-width:1px;stroke-linecap:butt;stroke-linejoin:miter;stroke-opacity:1"
       d="m 410.74922,4169.1334 c 0,0 0,-25.6584 -9.75021,-32.8428 -9.75022,-7.1844 -31.30332,-7.1844 -31.30332,-7.1844 l -1.02633,9.2371 1.53949,3.5922 c 0,0 19.50043,14.3687 40.54037,27.1979 z"
       id="path4373"
       inkscape:connector-curvature="0" />
  </g>
</svg>

<?xml version="1.0" encoding="UTF-8" standalone="no"?>
<!-- Created with Inkscape (http://www.inkscape.org/) -->

<svg
   xmlns:dc="http://purl.org/dc/elements/1.1/"
   xmlns:cc="http://creativecommons.org/ns#"
   xmlns:rdf="http://www.w3.org/1999/02/22-rdf-syntax-ns#"
   xmlns:svg="http://www.w3.org/2000/svg"
   xmlns="http://www.w3.org/2000/svg"
   xmlns:sodipodi="http://sodipodi.sourceforge.net/DTD/sodipodi-0.dtd"
   xmlns:inkscape="http://www.inkscape.org/namespaces/inkscape"
   id="svg4302"
   version="1.1"
   inkscape:version="0.91 r13725"
   width="1000"
   height="1000"
   viewBox="0 0 1000 1000"
   sodipodi:docname="justin.svg">
  <metadata
     id="metadata4308">
    <rdf:RDF>
      <cc:Work
         rdf:about="">
        <dc:format>image/svg+xml</dc:format>
        <dc:type
           rdf:resource="http://purl.org/dc/dcmitype/StillImage" />
        <dc:title></dc:title>
      </cc:Work>
    </rdf:RDF>
  </metadata>
  <defs
     id="defs4306" />
  <sodipodi:namedview
     pagecolor="#8effff"
     bordercolor="#666666"
     borderopacity="1"
     objecttolerance="10"
     gridtolerance="10"
     guidetolerance="10"
     inkscape:pageopacity="0"
     inkscape:pageshadow="2"
     inkscape:window-width="1920"
     inkscape:window-height="1056"
     id="namedview4304"
     showgrid="false"
     inkscape:zoom="0.77667441"
     inkscape:cx="526.44916"
     inkscape:cy="523.00556"
     inkscape:window-x="0"
     inkscape:window-y="24"
     inkscape:window-maximized="1"
     inkscape:current-layer="layer1"
     showguides="true"
     inkscape:guide-bbox="true">
    <sodipodi:guide
       position="582.67445,4741.5134"
       orientation="0,1"
       id="guide4408" />
    <sodipodi:guide
       position="499.56583,1013.2946"
       orientation="1,0"
       id="guide4466" />
    <sodipodi:guide
       position="437.76387,500.85337"
       orientation="0,1"
       id="guide4468" />
  </sodipodi:namedview>
  <g
     inkscape:groupmode="layer"
     id="layer1"
     inkscape:label="Layer 1"
     style="display:inline"
     transform="translate(0,-3733)">
    <circle
       style="fill:#455864;fill-rule:evenodd;stroke:none;stroke-width:1px;stroke-linecap:butt;stroke-linejoin:miter;stroke-opacity:1;fill-opacity:1"
       id="path4470"
       cx="499.56583"
       cy="4232.1465"
       r="500.85336" />
    <path
       style="fill:#000000;fill-opacity:1;fill-rule:evenodd;stroke:none;stroke-width:8;stroke-linecap:butt;stroke-linejoin:miter;stroke-miterlimit:4;stroke-dasharray:none;stroke-opacity:1"
       d="M 950.5332 681.28516 C 949.28252 681.24951 948.29443 681.68387 947.78125 682.9668 C 945.72858 688.0985 929.5636 718.63342 925.71484 721.19922 C 921.86605 723.76512 909.29307 723.50768 904.41797 726.33008 C 899.54285 729.15258 891.84455 740.69999 884.66016 742.49609 C 877.47579 744.29219 854.12773 750.44942 846.94336 756.60742 C 839.759 762.76552 829.49609 759.42976 829.49609 763.53516 C 829.49609 767.64046 783.05273 759.94336 783.05273 759.94336 L 526.21289 841.53711 L 525.14062 841.2207 C 525.14062 841.2207 516.06836 839.76814 516.06836 848.83984 C 516.06836 857.91144 506.2705 842.67256 491.75586 846.66406 C 477.24126 850.65556 447.48758 838.67989 426.44141 842.30859 C 405.3952 845.93729 357.49769 870.25012 329.91992 865.16992 C 302.34215 860.08982 265.32803 848.11359 258.43359 851.74219 C 251.53914 855.37089 235.21139 871.33842 230.49414 873.51562 C 227.15455 875.05698 203.4913 883.68291 188.51172 891.04102 A 500.85336 500.85336 0 0 0 499.56641 1000 A 500.85336 500.85336 0 0 0 965.57812 681.32422 C 964.53679 682.7415 963.66712 683.77082 963.11914 684.09961 C 960.39765 685.73251 954.28526 681.39208 950.5332 681.28516 z "
       transform="translate(0,3733)"
       id="path4377" />
    <path
       style="fill:#ffffff;fill-opacity:1;fill-rule:evenodd;stroke:none;stroke-width:8;stroke-linecap:butt;stroke-linejoin:miter;stroke-miterlimit:4;stroke-dasharray:none;stroke-opacity:1"
       d="m 526.2123,4578.1293 c 0,0 -5.1317,4.1053 1.53949,7.6975 6.67121,3.5922 22.06628,-7.6975 26.68479,-4.6185 4.61855,3.079 16.93459,2.5658 23.6058,2.5658 6.67118,0 21.5531,-4.6185 29.25065,-4.6185 7.69752,0 31.81646,-5.6448 43.61938,-5.1317 11.80288,0.5132 36.94816,-12.316 42.59304,-14.3687 5.64485,-2.0527 17.44774,-9.7502 30.79014,-18.9873 13.3424,-9.237 37.97453,-22.0662 37.97453,-22.0662 0,0 33.35598,-16.4214 40.54035,-15.3951 7.18439,1.0263 14.88191,2.5658 20.01361,1.0263 5.1317,-1.5395 -8.2107,-7.1843 -7.69755,-15.395 0.51318,-8.2108 -4.87509,-39.5141 -3.33558,-70.0476 1.53949,-30.5336 -1.53951,-68.5081 2.30925,-75.4359 3.84876,-6.9278 16.16482,-10.0068 24.8887,-14.8819 8.72388,-4.8751 29.50723,-33.6126 30.79016,-40.0272 1.28292,-6.4146 8.72389,-19.757 12.05947,-26.6848 3.3356,-6.9278 4.61851,-10.52 4.87512,-15.9083 0,0 9.49361,-9.7502 14.36873,-29.5072 4.87509,-19.757 4.87509,-43.6194 9.75022,-60.8105 4.87509,-17.1912 24.8887,-51.317 20.52676,-73.6398 -4.36194,-22.3229 -11.54631,-100.5812 -31.04674,-120.5948 -19.50043,-20.0136 -18.47409,-61.3237 -26.6848,-66.9686 -8.2107,-5.6448 -27.45455,2.3093 -55.16568,-12.316 -27.71113,-14.6253 -61.5803,-44.1326 -75.94903,-49.2643 -14.36874,-5.1316 4.61851,3.5922 -13.59901,2.8225 -18.21749,-0.7698 -10.51994,10.0068 -21.29652,10.0068 -10.77655,0 -5.64485,9.7502 -18.98725,10.2634 -13.3424,0.5131 -54.65251,-11.0332 -73.89636,-11.5463 -19.24386,-0.5132 -56.4486,-4.1054 -67.73833,-1.0264 -11.28973,3.079 -23.6058,8.4673 -29.25065,13.3424 -5.64485,4.8751 -23.86237,20.5268 -19.50043,26.6848 4.36194,6.158 -5.38827,5.3883 -23.09261,8.9805 -17.70434,3.5921 -15.39507,11.5463 -22.06628,14.6253 -6.67119,3.079 -13.3424,17.1912 -20.52677,17.4477 -7.18437,0.2566 -12.57264,7.6976 -15.90825,10.52 -3.33558,2.8224 -10.51994,20.5268 -18.73067,26.1716 -8.2107,5.6449 -38.48768,18.4741 -32.32965,31.8165 6.15803,13.3424 11.80288,31.3033 23.6058,38.2311 11.80288,6.9278 14.11215,6.4146 12.57264,13.599 -1.53952,7.1844 -12.31607,46.4418 -14.36874,49.5208 -2.05269,3.079 -11.80291,28.7375 -15.39509,32.5863 -3.59219,3.8488 -5.38828,16.678 -3.84876,20.2702 1.53951,3.5921 3.079,18.4741 11.54631,18.9872 8.46727,0.5132 -1.28291,6.9278 0,9.7503 1.28291,2.8224 1.79609,8.2107 4.61851,8.2107 2.82243,0 5.1317,-3.0791 5.1317,1.5395 0,4.6185 1.34706,9.8143 0.70562,10.135 -0.64147,0.3208 -5.19585,10.1351 -6.60707,12.8934 -1.4112,2.7583 -13.98384,24.1831 -13.0858,34.3182 0.89805,10.1351 3.97705,35.0238 2.69414,38.2311 -1.28294,3.2073 -15.52338,24.7604 -14.88192,27.3263 0.64147,2.5658 -0.51318,5.7731 1.28292,8.4673 1.79609,2.6941 16.93458,20.0136 19.75703,21.6814 2.82243,1.6678 12.31604,8.0824 16.4214,7.5692 4.10537,-0.5131 -2.56585,8.8522 -2.43756,11.2897 0.12829,2.4376 -1.15462,10.6483 -2.30924,14.6253 -1.15465,3.9771 0,15.3951 2.95071,18.7307 2.95071,3.3356 -3.20732,10.0068 -1.79609,15.0102 1.41123,5.0034 12.05949,14.6254 11.54631,17.1912 -0.51318,2.5658 -6.67122,40.1555 -7.44095,43.876 -0.76975,3.7204 -4.10536,17.3194 -1.53951,22.4511 2.56585,5.1317 16.16482,22.1946 31.04674,29.5072 14.88188,7.3127 77.10365,6.1581 83.51829,12.5727 6.4146,6.4146 13.34239,5.3883 13.59897,12.8292 0.25658,7.441 3.33561,33.8692 3.33561,33.8692 z"
       id="path4313"
       inkscape:connector-curvature="0"
       sodipodi:nodetypes="cssssssscsssssssscssssssssssssssssssssssssssssscsssssssssssssssssc" />
    <path
       style="fill:#ffffff;fill-opacity:1;fill-rule:evenodd;stroke:none;stroke-width:1px;stroke-linecap:butt;stroke-linejoin:miter;stroke-opacity:1"
       d="M 499.90234 33.300781 C 497.42611 33.290781 495.63457 33.372734 494.65234 33.552734 C 482.0797 35.862034 463.09257 80.7631 455.9082 85.125 C 448.72384 89.4869 424.0918 113.60571 424.0918 121.81641 C 424.0918 130.02711 426.14453 132.59375 426.14453 132.59375 C 426.14453 132.59375 421.01187 129.25879 418.18945 132.33789 C 415.36702 135.41689 400.4861 151.06779 401.25586 155.42969 C 402.02561 159.79159 409.21038 169.28445 406.64453 171.59375 C 404.07868 173.90305 400.22852 179.03657 400.22852 185.45117 C 400.22852 191.86587 404.3349 218.55034 410.23633 220.08984 C 416.13779 221.62934 875.42383 190.32617 875.42383 190.32617 L 892.92383 189.24414 A 500.85336 500.85336 0 0 0 717.57227 48.923828 C 708.60656 50.510079 701.23131 51.291472 693.87305 49.083984 C 679.35842 44.729584 680.08379 54.164847 666.29492 49.810547 C 653.58328 45.796347 529.12193 33.403481 499.90234 33.300781 z "
       transform="translate(0,3733)"
       id="path4379" />
    <path
       style="fill:#000000;fill-opacity:0.90566041;fill-rule:evenodd;stroke:none;stroke-width:8;stroke-linecap:butt;stroke-linejoin:miter;stroke-miterlimit:4;stroke-dasharray:none;stroke-opacity:1"
       d="m 737.13337,3831.1282 c -2.46244,-0.1462 6.0132,5.0468 -8.21924,4.4454 -18.21749,-0.7698 -10.52017,10.0066 -21.29675,10.0066 -10.77655,0 -5.64468,9.7504 -18.98708,10.2636 -13.3424,0.5131 -54.65242,-11.033 -73.89627,-11.5462 -19.24386,-0.5132 -56.44869,-4.1056 -67.73842,-1.0266 -11.28973,3.079 -23.60582,8.4672 -29.25067,13.3423 -5.64485,4.8751 -23.8626,20.527 -19.50066,26.685 4.36194,6.1581 -5.38797,5.3884 -23.09231,8.9806 -17.70433,3.5922 -15.39506,11.5463 -22.06628,14.6253 -6.67118,3.079 -13.34231,17.1909 -20.52668,17.4475 -7.18436,0.2566 -12.57281,7.6977 -15.90841,10.5201 -3.33558,2.8225 -10.51986,20.5267 -18.73059,26.1715 -8.2107,5.6449 -38.48788,18.474 -32.32988,31.8164 6.15803,13.3424 11.80297,31.3034 23.60588,38.2312 5.50121,3.229 8.93872,4.8414 10.88672,6.3703 2.94798,-1.4459 2.96909,-1.7515 2.96909,-1.7515 0,0 5.13147,-16.4218 24.6319,-15.3955 19.50043,1.0264 31.81672,12.8292 45.15912,5.6449 13.3424,-7.1844 21.03995,-18.9871 34.89553,-22.5793 13.85555,-3.5922 29.25048,-6.6711 41.05336,-0.513 11.80289,6.158 24.11878,26.6844 35.40851,28.7371 11.2897,2.0527 31.81664,9.2375 49.26437,-1.539 17.44777,-10.7766 65.17279,-5.6449 65.17279,-5.6449 0,0 -24.6326,28.7371 -11.29021,65.6853 13.3424,36.9482 35.92212,45.1589 35.92212,69.791 0,24.6321 13.3426,40.0272 19.50063,60.554 6.15803,20.5268 -11.29007,48.238 3.07866,42.0799 14.36876,-6.158 30.79019,-40.0274 51.31696,-54.3961 20.52676,-14.3688 33.86933,-23.6057 47.21173,-22.5793 13.3424,1.0263 19.67942,-4.3183 26.57387,7.2934 6.89442,11.6117 15.24051,42.8186 15.96625,47.8987 l 0.59942,4.1982 c 2.37694,-2.8104 9.53941,-12.2828 13.56575,-28.6 4.87509,-19.757 4.87492,-43.6194 9.75004,-60.8105 4.8751,-17.1912 24.88863,-51.3169 20.52668,-73.6398 -4.36194,-22.3228 -11.54636,-100.5814 -31.04679,-120.595 -19.50043,-20.0136 -18.47382,-61.3234 -26.68452,-66.9683 -8.2107,-5.6448 -27.45455,2.3091 -55.16568,-12.3162 -27.71114,-14.6254 -61.58069,-44.1327 -75.94943,-49.2644 -3.14314,-1.1225 -4.69002,-1.5818 -5.37951,-1.6227 z"
       id="path4313-3"
       inkscape:connector-curvature="0" />
    <path
       style="fill:#000000;fill-opacity:0.90566041;fill-rule:evenodd;stroke:none;stroke-width:1px;stroke-linecap:butt;stroke-linejoin:miter;stroke-opacity:1"
       d="m 494.90895,4143.475 c 0,0 -32.32964,7.6975 -30.27698,14.8819 2.0527,7.1844 1.02637,15.3951 6.67122,15.3951 5.64485,0 2.05267,3.079 11.80288,0.5131 9.75022,-2.5658 22.06628,-10.7765 34.8955,-13.3424 12.82925,-2.5658 66.71199,-5.6448 91.34412,8.2107 24.63213,13.8556 -7.69754,-13.3424 -7.69754,-13.3424 0,0 -15.39507,-20.0135 -106.7392,-12.316 z"
       id="path4371"
       inkscape:connector-curvature="0" />
    <path
       style="fill:#000000;fill-opacity:0.90566041;fill-rule:evenodd;stroke:none;stroke-width:1px;stroke-linecap:butt;stroke-linejoin:miter;stroke-opacity:1"
       d="m 410.74922,4169.1334 c 0,0 0,-25.6584 -9.75021,-32.8428 -9.75022,-7.1844 -31.30332,-7.1844 -31.30332,-7.1844 l -1.02633,9.2371 1.53949,3.5922 c 0,0 19.50043,14.3687 40.54037,27.1979 z"
       id="path4373"
       inkscape:connector-curvature="0" />
  </g>
</svg>
